svg/200/rounded/notes-fill.svg

<svg xmlns="http://www.w3.org/2000/svg" width="48" height="48" viewBox="0 -960 960 960"><path d="M175.384-269.231q-6.538 0-10.961-4.485T160-284.831q0-6.63 4.423-10.9Q168.846-300 175.384-300h369.232q6.538 0 10.961 4.485T560-284.399q0 6.63-4.423 10.899-4.423 4.269-10.961 4.269H175.384Zm0-195.384q-6.538 0-10.961-4.485Q160-473.586 160-480.216t4.423-10.899q4.423-4.27 10.961-4.27h609.232q6.538 0 10.961 4.485Q800-486.414 800-479.784t-4.423 10.899q-4.423 4.27-10.961 4.27H175.384Zm0-195.385q-6.538 0-10.961-4.485T160-675.601q0-6.63 4.423-10.899 4.423-4.269 10.961-4.269h609.232q6.538 0 10.961 4.485T800-675.169q0 6.63-4.423 10.9Q791.154-660 784.616-660H175.384Z"/></svg>

<svg xmlns="http://www.w3.org/2000/svg" width="48" height="48" viewBox="0 -960 960 960"><path d="M175.38-269.23q-6.53 0-10.96-4.49-4.42-4.48-4.42-11.11 0-6.63 4.42-10.9 4.43-4.27 10.96-4.27h369.24q6.53 0 10.96 4.49 4.42 4.48 4.42 11.11 0 6.63-4.42 10.9-4.43 4.27-10.96 4.27H175.38Zm0-195.39q-6.53 0-10.96-4.48-4.42-4.49-4.42-11.12 0-6.63 4.42-10.9 4.43-4.26 10.96-4.26h609.24q6.53 0 10.96 4.48 4.42 4.49 4.42 11.12 0 6.63-4.42 10.9-4.43 4.26-10.96 4.26H175.38Zm0-195.38q-6.53 0-10.96-4.49-4.42-4.48-4.42-11.11 0-6.63 4.42-10.9 4.43-4.27 10.96-4.27h609.24q6.53 0 10.96 4.49 4.42 4.48 4.42 11.11 0 6.63-4.42 10.9-4.43 4.27-10.96 4.27H175.38Z"/></svg>
